images/lg_logo.svg

<svg xmlns="http://www.w3.org/2000/svg" width="456" height="56" viewBox="0 0 456 56" fill="none"><path d="M46.5814 29.7171V40.9184H16.3077V0.0883789H17.2169C33.4348 0.0883789 46.5814 13.3566 46.5814 29.7171Z" fill="#191919"></path><path d="M0 0.0883789H11.5713V45.5174H47.1205V55.4764H0V0.0883789Z" fill="#191919"></path><path d="M67.1708 10.0527H74.5661V39.0789H92.0949V45.4434H67.1708V10.0527Z" fill="#191919"></path><path d="M103.978 10.0527H96.6304V45.4434H103.978V10.0527Z" fill="#191919"></path><path d="M135.959 16.3168H118.214V24.4574H133.75V30.6052H118.214V45.4381H110.871V10.1003H135.959V16.3168Z" fill="#191919"></path><path d="M165.54 29.9814H148.35V39.0789H167.94V45.4434H141.118V10.0527H167.073V16.3168H148.35V23.8337H165.54V29.9814Z" fill="#191919"></path><path d="M195.407 44.5764C193.451 45.7764 191.051 46.379 188.202 46.379C183.513 46.379 179.67 44.7562 176.678 41.5052C173.559 38.2384 171.995 33.7769 171.995 28.1101C171.995 22.4434 173.57 17.7863 176.726 14.3292C179.882 10.8721 184.047 9.14351 189.233 9.14351C193.731 9.14351 197.342 10.2853 200.075 12.5636C202.802 14.8472 204.367 17.6912 204.769 21.1007H197.495C196.935 18.685 195.566 16.9934 193.388 16.0366C192.172 15.508 190.819 15.2437 189.328 15.2437C186.479 15.2437 184.137 16.3221 182.303 18.4735C180.468 20.625 179.554 23.8654 179.554 28.1841C179.554 32.5029 180.548 35.6217 182.53 37.4296C184.512 39.2374 186.769 40.1414 189.302 40.1414C191.834 40.1414 193.816 39.4277 195.402 37.9899C196.988 36.5574 197.96 34.6808 198.33 32.3602H190.142V26.4556H204.885V45.4486H199.985L199.239 41.0294C197.812 42.7104 196.533 43.8945 195.396 44.5817" fill="#191919"></path><path d="M219.633 38.1644L217.186 45.4381H209.458L222.086 10.0474H230.438L242.972 45.4381H234.953L232.674 38.1644H219.633ZM230.602 32.0694L226.183 18.1458L221.621 32.0694H230.602Z" fill="#191919"></path><path d="M269.545 10.0527V16.3168H258.957V45.4434H251.514V16.3168H240.878V10.0527H269.545Z" fill="#191919"></path><path d="M298.502 29.9814H281.312V39.0789H300.902V45.4434H274.086V10.0527H300.041V16.3168H281.312V23.8337H298.502V29.9814Z" fill="#191919"></path><path d="M309.952 45.4434L310 45.1473C313.341 45.1473 313.933 43.1333 314.72 39.4912L319.784 15.5926C320.62 11.8553 320.72 9.93643 317.474 9.93643L317.522 9.64041H331.192C340.781 9.64041 346.04 14.8525 346.04 23.3103C346.04 35.3574 337.387 45.4381 324.256 45.4381H309.947L309.952 45.4434ZM341.42 22.4751C341.42 14.6094 337.636 10.428 330.943 10.428H327.106C325.974 10.428 325.092 11.0201 324.843 12.1989L318.648 41.5052C318.204 43.424 318.944 44.6504 323.908 44.6504C335.659 44.6504 341.415 33.1425 341.415 22.4698" fill="#191919"></path><path d="M351.253 32.8994C350.957 34.2262 350.809 35.6534 350.809 37.0278C350.809 41.6003 352.431 43.6196 355.185 43.6196C358.183 43.6196 361.434 41.3096 364.283 37.8683L364.579 38.0639C360.99 43.6196 357.205 46.0777 353.367 46.0777C349.529 46.0777 346.633 43.4716 346.633 37.9635C346.633 30.1453 352.188 19.0814 361.925 19.0814C365.615 19.0814 367.285 20.6038 367.285 22.8663C367.285 27.3437 361.043 29.9497 351.253 32.8994ZM351.448 32.0642C359.515 29.2097 363.596 26.7516 363.596 22.6707C363.596 21.0954 363.004 19.8162 361.138 19.8162C357.3 19.8162 353.023 25.5199 351.448 32.0589" fill="#191919"></path><path d="M392.41 38.508C389.952 43.2285 387.198 46.0301 384.888 46.0301C382.578 46.0301 382.383 43.7677 383.07 40.818L385.972 28.1313C386.707 24.9332 387.251 21.9835 384.941 21.9835C380.712 21.9835 374.221 32.9469 371.514 45.4381H367.581L371.958 24.7376C372.202 23.5588 372.498 22.232 371.662 22.232C370.975 22.232 369.696 23.5112 367.925 25.8212L367.682 25.6257C369.844 21.3968 372.355 19.0867 374.369 19.0867C376.631 19.0867 376.631 21.3968 376.039 24.2988L373.481 36.0499C377.07 26.2124 382.33 19.0867 387.346 19.0867C391.427 19.0867 391.131 23.4161 389.952 28.5277L387.198 40.3792C386.95 41.558 386.606 42.8849 387.441 42.8849C388.129 42.8849 389.751 41.558 392.162 38.3124L392.41 38.508Z" fill="#191919"></path><path d="M395.556 36.5891L398.114 24.7376C398.31 23.7068 398.653 22.232 397.866 22.232C397.131 22.232 395.799 23.5588 393.98 25.9217L393.732 25.7261C396.042 21.3492 398.5 19.0867 400.567 19.0867C403.073 19.0867 402.681 22.3324 402.237 24.2988L399.483 36.9855C398.743 40.5748 399.039 43.4293 401.645 43.4293C406.857 43.4293 411.53 32.7566 411.53 26.2177C411.53 23.7121 410.843 21.0532 409.268 19.9695V19.6735L412.81 19.0814C414.189 20.1651 414.776 21.9359 414.776 23.95C414.776 31.5726 405.779 46.0301 398.944 46.0301C394.863 46.0301 394.419 41.7536 395.55 36.5891" fill="#191919"></path><path d="M419.993 32.8994C419.697 34.2262 419.549 35.6534 419.549 37.0278C419.549 41.6003 421.172 43.6196 423.926 43.6196C426.924 43.6196 430.174 41.3096 433.024 37.8683L433.32 38.0639C429.73 43.6196 425.946 46.0777 422.108 46.0777C418.27 46.0777 415.373 43.4716 415.373 37.9635C415.373 30.1453 420.929 19.0814 430.666 19.0814C434.356 19.0814 436.026 20.6038 436.026 22.8663C436.026 27.3437 429.783 29.9497 419.993 32.8994ZM420.189 32.0642C428.256 29.2097 432.337 26.7516 432.337 22.6707C432.337 21.0954 431.744 19.8162 429.878 19.8162C426.041 19.8162 421.764 25.5199 420.189 32.0589" fill="#191919"></path><path d="M455.4 19.4779L453.529 23.7068H453.233C452.641 23.4108 452.149 23.3156 451.562 23.3156C446.498 23.3156 442.613 34.4271 440.25 45.4434H436.317L440.694 24.7429C440.937 23.5112 441.233 22.2373 440.398 22.2373C439.711 22.2373 438.431 23.5165 436.661 25.8265L436.417 25.6309C438.579 21.402 441.09 19.092 443.104 19.092C445.367 19.092 445.367 21.402 444.775 24.3041L442.708 33.7927C445.314 25.7261 448.951 19.0867 453.328 19.0867C454.015 19.0867 454.702 19.1343 455.395 19.4779" fill="#191919"></path></svg>

<svg version="1.2" xmlns="http://www.w3.org/2000/svg" viewBox="0 0 456 56" width="456" height="56"><style>.a{fill:#191919}</style><path class="a" d="m46.6 29.7v11.2h-30.3v-40.8h0.9c16.2 0 29.4 13.3 29.4 29.6z"/><path class="a" d="m0 0.1h11.6v45.4h35.5v10h-47.1z"/><path class="a" d="m67.2 10.1h7.4v29h17.5v6.3h-24.9z"/><path class="a" d="m104 10.1h-7.4v35.3h7.4z"/><path class="a" d="m136 16.3h-17.8v8.2h15.6v6.1h-15.6v14.8h-7.3v-35.3h25.1z"/><path class="a" d="m165.5 30h-17.2v9.1h19.6v6.3h-26.8v-35.3h26v6.2h-18.8v7.5h17.2z"/><path class="a" d="m195.4 44.6q-2.9 1.8-7.2 1.8-7 0-11.5-4.9-4.7-4.9-4.7-13.4c0-5.7 1.6-10.3 4.7-13.8q4.8-5.2 12.5-5.2 6.8 0 10.9 3.5 4.1 3.4 4.7 8.5h-7.3q-0.8-3.6-4.1-5.1-1.8-0.8-4.1-0.8-4.2 0-7 3.3-2.7 3.2-2.7 9.7c0 4.3 0.9 7.4 2.9 9.2q3 2.7 6.8 2.7c2.5 0 4.5-0.7 6.1-2.1q2.4-2.2 2.9-5.6h-8.2v-5.9h14.8v18.9h-4.9l-0.8-4.4q-2.1 2.6-3.8 3.6"/><path class="a" d="m219.6 38.2l-2.4 7.2h-7.7l12.6-35.4h8.3l12.6 35.4h-8l-2.3-7.2zm10.9-6.1l-4.4-14-4.5 14z"/><path class="a" d="m269.5 10.1v6.2h-10.5v29.1h-7.5v-29.1h-10.6v-6.2z"/><path class="a" d="m298.5 30h-17.2v9.1h19.6v6.3h-26.8v-35.3h25.9v6.2h-18.7v7.5h17.2z"/><path class="a" d="m310 45.4v-0.3c3.3 0 3.9-2 4.7-5.6l5.1-23.9c0.8-3.7 0.9-5.7-2.3-5.7v-0.3h13.7c9.6 0 14.8 5.3 14.8 13.7 0 12.1-8.6 22.1-21.7 22.1h-14.4zm31.5-22.9c0-7.9-3.8-12.1-10.5-12.1h-3.8c-1.1 0-2 0.6-2.3 1.8l-6.2 29.3c-0.4 1.9 0.3 3.1 5.3 3.1 11.8 0 17.5-11.5 17.5-22.1z"/><path class="a" d="m351.3 32.9c-0.3 1.3-0.5 2.8-0.5 4.1 0 4.6 1.6 6.6 4.4 6.6 3 0 6.2-2.3 9.1-5.7l0.3 0.2c-3.6 5.5-7.4 8-11.2 8-3.9 0-6.8-2.6-6.8-8.1 0-7.9 5.6-18.9 15.3-18.9 3.7 0 5.4 1.5 5.4 3.8 0 4.4-6.3 7-16 10zm0.1-0.8c8.1-2.9 12.2-5.3 12.2-9.4 0-1.6-0.6-2.9-2.5-2.9-3.8 0-8.1 5.7-9.7 12.3z"/><path class="a" d="m392.4 38.5c-2.4 4.7-5.2 7.5-7.5 7.5-2.3 0-2.5-2.2-1.8-5.2l2.9-12.7c0.7-3.2 1.3-6.1-1.1-6.1-4.2 0-10.7 10.9-13.4 23.4h-3.9l4.4-20.7c0.2-1.1 0.5-2.5-0.3-2.5-0.7 0-2 1.3-3.8 3.6l-0.2-0.2c2.1-4.2 4.7-6.5 6.7-6.5 2.2 0 2.2 2.3 1.6 5.2l-2.5 11.7c3.6-9.8 8.8-16.9 13.8-16.9 4.1 0 3.8 4.3 2.7 9.4l-2.8 11.9c-0.2 1.2-0.6 2.5 0.2 2.5 0.7 0 2.4-1.3 4.8-4.6z"/><path class="a" d="m395.6 36.6l2.5-11.9c0.2-1 0.6-2.5-0.2-2.5-0.8 0-2.1 1.4-3.9 3.7l-0.3-0.2c2.3-4.4 4.8-6.6 6.9-6.6 2.5 0 2.1 3.2 1.6 5.2l-2.7 12.7c-0.8 3.6-0.5 6.4 2.1 6.4 5.3 0 9.9-10.6 9.9-17.2 0-2.5-0.7-5.1-2.2-6.2v-0.3l3.5-0.6c1.4 1.1 2 2.8 2 4.8 0 7.7-9 22.1-15.9 22.1-4 0-4.5-4.2-3.3-9.4z"/><path class="a" d="m420 32.9c-0.3 1.3-0.5 2.8-0.5 4.1 0 4.6 1.7 6.6 4.4 6.6 3 0 6.3-2.3 9.1-5.7l0.3 0.2c-3.6 5.5-7.4 8-11.2 8-3.8 0-6.7-2.6-6.7-8.1 0-7.9 5.5-18.9 15.3-18.9 3.7 0 5.3 1.5 5.3 3.8 0 4.4-6.2 7-16 10zm0.2-0.8c8.1-2.9 12.1-5.3 12.1-9.4 0-1.6-0.6-2.9-2.4-2.9-3.9 0-8.1 5.7-9.7 12.3z"/><path class="a" d="m455.4 19.5l-1.9 4.2h-0.3c-0.6-0.3-1.1-0.4-1.6-0.4-5.1 0-9 11.1-11.3 22.1h-4l4.4-20.7c0.2-1.2 0.5-2.5-0.3-2.5-0.7 0-2 1.3-3.7 3.6l-0.3-0.2c2.2-4.2 4.7-6.5 6.7-6.5 2.3 0 2.3 2.3 1.7 5.2l-2.1 9.5c2.6-8.1 6.3-14.7 10.6-14.7 0.7 0 1.4 0 2.1 0.4z"/></svg>
